assets/info_success.svg

<svg width="119" height="113" viewBox="0 0 119 113" fill="none" xmlns="http://www.w3.org/2000/svg">
<path fill-rule="evenodd" clip-rule="evenodd" d="M117.918 88.8143C118.511 95.6022 100.266 102.744 77.1679 104.767C54.0686 106.79 34.8624 102.929 34.2692 96.1416C33.6761 89.3537 51.9208 82.2113 75.0202 80.1879C98.1185 78.1646 117.325 82.0265 117.918 88.8143Z" fill="#293A6C" fill-opacity="0.12"/>
<path d="M44.4585 100.883C69.0032 107.472 94.2267 92.9011 100.797 68.3374C107.367 43.7737 92.7955 18.5195 68.2507 11.9305C43.706 5.34145 18.4825 19.9128 11.9125 44.4765C5.34243 69.0401 19.9138 94.2944 44.4585 100.883Z" fill="#7B3FE4" stroke="white" stroke-width="4.88625"/>
<path d="M46.1152 54.9395L51.3485 64.0051" stroke="white" stroke-width="5.70063" stroke-linecap="round"/>
<path d="M68.9316 49.1445L51.3081 64.0209" stroke="white" stroke-width="5.70063" stroke-linecap="round"/>
</svg>

<svg xmlns="http://www.w3.org/2000/svg" width="119" height="113" fill="none" viewBox="0 0 119 113">
    <path fill="#C7B299" fill-rule="evenodd" d="M117.918 88.814c.593 6.788-17.652 13.93-40.75 15.953-23.1 2.023-42.306-1.838-42.899-8.625-.593-6.788 17.652-13.93 40.751-15.954 23.099-2.023 42.305 1.838 42.898 8.626z" clip-rule="evenodd" opacity=".525"/>
    <path fill="#7B3FE4" stroke="#fff" stroke-width="4.886" d="M44.459 100.883c24.544 6.589 49.768-7.982 56.338-32.546 6.57-24.563-8.001-49.818-32.546-56.407-24.545-6.589-49.769 7.983-56.339 32.547-6.57 24.563 8.002 49.817 32.547 56.406z"/>
    <path stroke="#fff" stroke-linecap="round" stroke-width="5.701" d="M46.115 54.94l5.233 9.065M68.932 49.145L51.308 64.02"/>
</svg>
